!!!OTL: Der Botenbube.
!!!ARE: Europa, Mitteleuropa, Deutschland
!!!SCT: A0314
!!!TXL: @@GMH
!!!YEM: Copyright 1995, estate of Helmut Schaffrath.
**kern	**text
*M4/2	*
*met(c|)	*
*k[b-]	*
*G:	*
!LO:TX:a:t=G moll.	!
!LO:TX:a:t=Mel. Ein goldſchmid wolt ein bader werden.	!
=1	=1
{2g	Ey
2g	du
2g	lie-
2d	-ber
=2	=2
(4g	bo-
4a)	.
2g	-ten-
1f#}	-bub,
=3	=3
{2a	treg-
2b-	-ſtu
2cc	cor-
2b-	-du-
=4	=4
2a	-a-
2a	-niſch
1g}	ſchuch;
=5	=5
{2g	Tregſt
2g	du
2g	dei-
2d	-ne
=6	=6
(4g	brief-
4a)	.
2g	-lein
1f#}	aus,
=7	=7
{2a	gibt
2b-	man
2cc	dir
2b-	ſechs
=8	=8
2a	Kreuʒer
2a	.
1g}	raus.
=9	=9
{2a	ſteck-
2a	-ſtus
2a	in
2g	dein
=10	=10
2a	beu-
2b-/	-te-
1cc}	-lein,
=11	=11
{2a	iſt
2a	doch
2a	nur
2g	ein
=12	=12
2a	Kreu-
2b-/	-ʒer
1cc}	drein,
=13	=13
{(1dd	du
2cc)	magſt
2b-	mir
=14	=14
1a	wol
1g	ein
=15	=15
4f	gal-
4g	.
2f	.
2g	.
2f	-loſch
=16	=16
(1e	ſein,
2d)}	.
{2d	du
=17	=17
(4b-	magſt
4cc)	.
2dd	mir
2cc	wol
2b-	ein
=18	=18
2a	gal-
2a	-loſch
1g}	ſein.
==	==
!!!GTL: Tanz- und Kranzlieder
!!!AGN: Romanze, Ballade, Lied
!! Hainhofer, Lautenbuch II. 1603. Bl. 28.
!!!ONB: ESAC (Essen Associative Code) Database: ALTDEU
!!!AMT: simple quadruple
!!!AIN: vox
!!!EED: Helmut Schaffrath
!!!EEV: 1.0
!!!URL-scan: https://rosdok.uni-rostock.de/mcrviewer/recordIdentifier/rosdok_ppn738218359/iview2/phys_0466.iview2?x=-495.6391625615763&y=1116.7709359510336&scale=0.4629418472063854&rotation=0&layout=singlePageLayout
!!!ENC: Anna Maria Matuszewska
!!!EEV: 2024/13/03
*-	*-
